X:1
T:Deeper Love
T:Deeper Love
T:William Howard Doane
T:William Howard Doane, 1880
T:Public Domain Courtesy of the Cyber Hymnal™
C:William Howard Doane
Z:Public Domain
Z:Courtesy of the Cyber Hymnal™
%%score ( 1 2 ) ( 3 4 )
L:1/8
Q:1/4=140
M:6/4
K:C
V:1 treble 
V:2 treble 
V:3 bass 
V:4 bass 
V:1
 [CE]4 [DF]2 [EG]4 [Gc]2 | ([Ac]2 [GB]2) [FA]2 [EG]6 | [CE]4 [DF]2 ([FA]2 [EG]2) [CE]2 | %3
w: 1.~Pre- cious Sav- ior,|dear- * est friend,|While we bend * the|
w: 2.~Come and con- se-|crate * us now,|Seal us ev- * er|
w: 3.~Trust- ing as a|lit- * tle child|Help us, Lord, * to|
w: 4.~Deep- er love, yes,|deep- * er love,|This our con- * stant|
 ([CE]6 [B,D]4) z2 | [CE]4 [DF]2 [EG]4 [Gc]2 | ([Ac]2 [GB]2) [FA]2 [Fc]6 | %6
w: knee, *|Come and give our|long- * ing hearts|
w: Thine; *|May we to Thy|ho- * ly will|
w: be, *|While we ask in|sim- * ple faith|
w: plea; *|Deep- er love, yes,|deep- * er love,|
 [EG]4 [Ec]2 (B2 A2) [FB]2 | [Ec]6- [Ec]4 ||"^Refrain" [Ec]2 | [Fd]6 [FG]6 | %10
w: Deep- er love * to|Thee. *|||
w: Ev- ery power * re-|sign. *|||
w: Deep- er love * to|Thee. *|||
w: Till we’re lost * in|Thee. *|||
 [FB]2 [FA]2 [FG]2 [Ec]4 [EG]2 | [Ge]6 [Gc]6 | [Gc]2 [FB]2 [Ec]2 !fermata![Gd]4 z2 | %13
w: |||
w: |||
w: |||
w: |||
 [Ge]2 [Fd]2 [Ec]2 [GB]4 [FA]2 | [Ac]2 [GB]2 [FA]2 [FA]4 [EG]2 | F2 [EG]2 [FA]2 G4 [Gc]2 | %16
w: |||
w: |||
w: |||
w: |||
 [FB]2 [FA]2 [FB]2 [Ec]6 |] %17
w: |
w: |
w: |
w: |
V:2
 x12 | x12 | x12 | x12 | x12 | x12 | x6 F4 x2 | x10 || x2 | x12 | x12 | x12 | x12 | x12 | x12 | %15
 F2 x2 G4 x4 | x12 |] %17
V:3
 [C,G,]4 [C,G,]2 [C,C]4 [E,C]2 | [F,C]4 [F,C]2 [C,C]6 | [C,G,]4 [C,G,]2 [C,C]4 [C,G,]2 | %3
w: ~ ~ ~ ~|~ ~ ~|~ ~ ~ ~|
 [G,,G,]6- [G,,G,]4 z2 | [C,G,]4 [C,G,]2 [C,C]4 [E,C]2 | [F,C]4 [F,C]2 [F,A,]6 | %6
w: ~ *|~ ~ ~ ~|~ ~ ~|
 [G,C]4 G,2 [G,,G,]4 [G,,G,]2 | [C,G,]6- [C,G,]4 || [C,G,]2 | [G,B,]6 [G,B,]6 | %10
w: ~ ~ ~ ~|~ *|O|Sav- ior,|
 [G,D]2 [G,C]2 [G,B,]2 [C,C]4 [C,C]2 | [C,C]6 [C,E]6 | [G,E]2 [G,D]2 [G,C]2 [G,B,]4 z2 | %13
w: lov- ing Re- deem- er,|Sav- ior,|pre- cious to me,|
 [C,C]2 [C,C]2 [C,C]2 [F,C]4 [F,C]2 | [F,C]2 [F,C]2 [F,C]2 [C,C]4 [C,C]2 | %15
w: Grant me, I pray Thee,|More of Thy Spir- it,|
 [A,C]2 [G,C]2 [F,C]2 [E,C]4 [C,E]2 | [G,D]2 [G,C]2 [G,D]2 [C,C]6 |] %17
w: Draw- ing me clos- er,|Clos- er to Thee.|
V:4
 x12 | x12 | x12 | x12 | x12 | x12 | x4 G,2 x6 | x10 || x2 | x12 | x12 | x12 | x12 | x12 | x12 | %15
 x12 | x12 |] %17

